assets/icons/drive/harddisk-disabled-filled.svg

<?xml version="1.0" encoding="UTF-8" standalone="no"?>
<svg viewBox="0 0 24 24" height="24" width="24" version="1.1" id="svg10" sodipodi:docname="harddisk-disabled-filled.svg" inkscape:version="1.2 (1:1.2.1+202207142221+cd75a1ee6d)"
   xmlns:inkscape="http://www.inkscape.org/namespaces/inkscape"
   xmlns:sodipodi="http://sodipodi.sourceforge.net/DTD/sodipodi-0.dtd"
   xmlns="http://www.w3.org/2000/svg"
   xmlns:svg="http://www.w3.org/2000/svg">
   <defs id="defs14" />
   <sodipodi:namedview id="namedview12" pagecolor="#ffffff" bordercolor="#666666" borderopacity="1.0" inkscape:pageshadow="2" inkscape:pageopacity="0.0" inkscape:pagecheckerboard="0" showgrid="false" inkscape:snap-page="true" inkscape:zoom="19.786194" inkscape:cx="22.667321" inkscape:cy="13.064665" inkscape:window-width="1846" inkscape:window-height="1016" inkscape:window-x="0" inkscape:window-y="0" inkscape:window-maximized="1" inkscape:current-layer="svg10" inkscape:showpageshadow="2" inkscape:deskcolor="#d1d1d1">
      <inkscape:grid type="xygrid" id="grid957" />
      <inkscape:grid type="xygrid" id="grid234" dotted="true" spacingx="0.5" spacingy="0.5" empspacing="10" />
   </sodipodi:namedview>
   <path id="path860" style="color:#000000;fill:#808080;fill-opacity:1;-inkscape-stroke:none" d="M 7.4550781 2 C 6.4864993 2.0089807 5.7372579 2.0732702 5.1171875 2.4453125 C 5.0044474 2.5129565 4.9009076 2.5934184 4.8046875 2.6835938 L 11.191406 9.0703125 C 11.434158 9.0303813 11.678893 9.0036376 11.925781 9 C 12.015953 8.9987 12.106916 9.0003064 12.197266 9.0039062 C 13.523891 9.0610882 14.773294 9.6436266 15.669922 10.623047 L 16.353516 11.353516 L 14.914062 12.792969 L 16.121094 14 L 17 14 C 16.999987 14.275927 16.974993 14.545888 16.931641 14.810547 L 20 17.878906 L 20 5.5 C 20 4.7222246 19.94022 4.1136229 19.771484 3.6074219 C 19.602752 3.1012209 19.296194 2.6933408 18.882812 2.4453125 C 18.056053 1.9492562 16.999996 2 15.5 2 L 8.5 2 C 8.1250013 2 7.7779378 1.9970064 7.4550781 2 z M 2.8535156 2.1464844 L 2.1464844 2.8535156 L 4.0292969 4.7363281 C 4.0118904 4.9735374 4 5.2228495 4 5.5 L 4 18.5 C 4 19.277775 4.0597824 19.886378 4.2285156 20.392578 C 4.3972494 20.89878 4.7038072 21.306659 5.1171875 21.554688 C 5.9439481 22.050744 7.000005 22 8.5 22 L 15.5 22 C 16.999996 22 18.056052 22.050738 18.882812 21.554688 C 19.278811 21.317088 19.575358 20.931968 19.748047 20.455078 L 21.146484 21.853516 L 21.853516 21.146484 L 19.970703 19.263672 L 16.617188 15.910156 L 15.835938 15.128906 L 13.757812 13.050781 L 12.949219 12.242188 L 10.873047 10.166016 L 10.085938 9.3808594 L 4.2519531 3.5449219 L 2.8535156 2.1464844 z M 9.171875 9.8789062 L 9.8945312 10.601562 C 8.4166021 11.516039 7.6739702 13.308258 8.1367188 15.035156 C 8.6565395 16.97331 10.531946 18.226364 12.521484 17.964844 C 13.74888 17.80345 14.784597 17.094998 15.398438 16.105469 L 16.119141 16.826172 C 15.340873 17.961171 14.105184 18.765847 12.652344 18.957031 C 10.164903 19.284724 7.8197655 17.718233 7.1699219 15.294922 C 6.6119156 13.213424 7.4548295 11.055625 9.171875 9.8789062 z M 12.130859 10.009766 L 14.207031 12.085938 L 14.964844 11.328125 C 14.222757 10.503362 13.193042 10.04713 12.130859 10.009766 z M 11.388672 12.095703 L 12.363281 13.070312 A 1 1 0 0 0 12 13 A 1 1 0 0 0 11 14 A 1 1 0 0 0 12 15 A 1 1 0 0 0 13 14 A 1 1 0 0 0 12.929688 13.636719 L 13.904297 14.611328 A 2 2 0 0 1 12 16 A 2 2 0 0 1 10 14 A 2 2 0 0 1 11.388672 12.095703 z " />
</svg>

<svg height="24" width="24" xmlns="http://www.w3.org/2000/svg"><path style="color:#000;fill:gray;fill-opacity:1;-inkscape-stroke:none" d="M7.455 2c-.969.009-1.718.073-2.338.445a1.848 1.848 0 0 0-.312.239L11.19 9.07a4.974 4.974 0 0 1 1.006-.066 5 5 0 0 1 3.473 1.619l.684.73-1.44 1.44L16.121 14H17c0 .276-.025.546-.068.81L20 17.88V5.5c0-.778-.06-1.386-.229-1.893-.168-.506-.475-.914-.888-1.162C18.056 1.95 17 2 15.5 2h-7c-.375 0-.722-.003-1.045 0zm-4.601.146-.708.708L4.03 4.736c-.018.238-.03.487-.03.764v13c0 .778.06 1.386.229 1.893.168.506.475.914.888 1.162C5.944 22.05 7 22 8.5 22h7c1.5 0 2.556.05 3.383-.445.396-.238.692-.623.865-1.1l1.398 1.399.708-.708-1.883-1.882-3.354-3.354-.781-.781-2.078-2.078-.809-.809-2.076-2.076-.787-.785-5.834-5.836-1.398-1.399zM9.172 9.88l.723.723a3.999 3.999 0 1 0 5.503 5.503l.721.721a4.986 4.986 0 0 1-3.467 2.131 5 5 0 0 1-3.48-9.078zm2.959.13 2.076 2.077.758-.758a3.995 3.995 0 0 0-2.834-1.318zm-.742 2.087.974.974A1 1 0 0 0 12 13a1 1 0 0 0-1 1 1 1 0 0 0 1 1 1 1 0 0 0 1-1 1 1 0 0 0-.07-.363l.974.974A2 2 0 0 1 12 16a2 2 0 0 1-2-2 2 2 0 0 1 1.389-1.904z"/></svg>
